svg/gate_open.svg

<svg xmlns="http://www.w3.org/2000/svg" viewBox="0 0 24 24"><path d="M7 20V6H5v4H3V8H1v12h2v-2h2v2zm-4-4v-4h2v4zm18-8v2h-2V6h-2v14h2v-2h2v2h2V8zm0 8h-2v-4h2z"/></svg>

<?xml version="1.0" encoding="UTF-8"?><!DOCTYPE svg PUBLIC "-//W3C//DTD SVG 1.1//EN" "http://www.w3.org/Graphics/SVG/1.1/DTD/svg11.dtd"><svg xmlns="http://www.w3.org/2000/svg" xmlns:xlink="http://www.w3.org/1999/xlink" version="1.1" id="mdi-gate-open" width="24" height="24" viewBox="0 0 24 24"><path d="M7 20V6H5V10H3V8H1V20H3V18H5V20H7M3 16V12H5V16H3M21 8V10H19V6H17V20H19V18H21V20H23V8H21M21 16H19V12H21V16Z" /></svg>
